outputs/icons/audio_video/skip_previous_round.svg

<svg xmlns="http://www.w3.org/2000/svg" width="1200" height="1200" fill="none"><g clip-path="url(#a)"><path fill="#000" d="M350 300c27.5 0 50 22.5 50 50v500c0 27.5-22.5 50-50 50s-50-22.5-50-50V350c0-27.5 22.5-50 50-50m183 341 288.5 203.5c33 23.5 79-.5 79-41v-407c0-40.5-45.5-64-79-41L533 559c-28.5 20-28.5 62 0 82"/></g><defs><clipPath id="a"><path fill="#fff" d="M0 0h1200v1200H0z"/></clipPath></defs></svg>

<svg width="1200" height="1200" viewBox="0 0 1200 1200" fill="none" xmlns="http://www.w3.org/2000/svg"><g clip-path="url(#clip0_231_5126)"><path d="M350 300C377.5 300 400 322.5 400 350V850C400 877.5 377.5 900 350 900C322.5 900 300 877.5 300 850V350C300 322.5 322.5 300 350 300ZM533 641L821.5 844.5C854.5 868 900.5 844 900.5 803.5V396.5C900.5 356 855 332.5 821.5 355.5L533 559C504.5 579 504.5 621 533 641Z" fill="black"/></g><defs><clipPath id="clip0_231_5126"><path width="24" fill="white" d="M0 0H1200V1200H0V0z"/></clipPath></defs></svg>
